X:1
T:Sierra Swing
C:by Marvin Standifer
C:as played by M.C. Pigg
L:1/8
M:4/4
I:linebreak $
K:G
V:1 treble
V:1
 f2 g2 a2 || "G"b2 f2 a g2 d | B4 c2 ^c2 |"D7" de d2 c A2 F- | F6 d2 |$
"D7" e f2 g f2 e2 | ddBB cc A2 |1 "G" G3 F GABe |"D7" d2 :|2"G" G4 G2 F2 |"C" =F4 G F2 D |$
|| "C"E2 C2 E G3 | c2 e2 d c3 |"G" B4 G A3 | "A7" B6 _B2 |$
"A7" A4 ^c4 | e2 a2- a3 e |"D7" fa f2 ef e2 | d4- dfga |$
|| "G"b2 f2 a g2 d | B4 c2 ^c2 | "D7" de d2 c A2 F- | F6 d2 |
